X:1
T:Gute Nacht
T:Gute Nacht
T:Robert Schumann (1810-1856)
T:Friedrich Rückert (1788-1866)
T:sangerforum@musikk.no
T:sangerforum@musikk.no
C:Robert Schumann (1810-1856)
Z:Friedrich Rückert (1788-1866)
Z:sangerforum@musikk.no
%%score [ 1 2 3 4 ]
L:1/8
Q:1/4=50
M:4/4
K:Ab
V:1 treble nm="Soprano"
V:2 treble nm="Alto"
V:3 treble-8 nm="Tenor"
V:4 bass nm="Bass"
V:1
"^Langsam"!p! c2 | c3 B A A B c | (e3 d) !breath!c2"^solo" c2- | c2 B A f2"^tutti" f2- | %4
w: Die|gu- te Nacht, die ich dir|sa- * ge, Freund,|_ hö- rest du, Freund,|
 f2 e =d !breath!e2 c2 | c3 B A A B c | (e3 d) !breath!c2"^solo" f2- | %7
w: _ hö- rest du; ein|En- gel, der die Bot- schaft|tra- * ge, geht|
 f2 c =d e2"_tutti""^(solo)" [ca]2- | [ca]2 c =d !breath!e2 e2 | e3/2 B/ B3 B B c | %10
w: _ ab und zu, geht|_ ab und zu. Er|bringt sie dir, und hat mir|
 d2 d2 z2!<(! d2 | f3!<)!!>(! e d2 c2!>)! | !breath!d2 F4 F3/2 F/ | F3 F G3 G | %14
w: wie- der den|Gruß, den Gruß ge-|bracht; dir sa- gen|auch des Freun- des|
 A2 A2"^solo"!pp! B2 F F | !breath!B4!pp!"^tutti" B2"^rit." E E | A4 !fermata!z2 |] %17
w: Lie- der nun gu- te|Nacht, nun Gu- te|Nacht!|
V:2
!p! E2 | G3 G E E E E | E4 E2 z2 | z4 z2 A2- | A2 A A !breath!G2 E2 | F3 G E E E E | (E3 E) E2 z2 | %7
w: Die|gu- te Nacht, die ich dir|sa- ge,|Freund,|_ hö- rest du; ein|En- gel, der die Bot- schaft|tra- * ge,|
 z4 z2 A2- | A2 A A !breath!G2 G2 | G3/2 _G/ F3 =G G E | F2 F2 z2!<(! F2 | %11
w: geht|_ ab und zu. Er|bringt sie dir, und hat mir|wie- der den|
 _G3!<)!!>(! G F2 E2!>)! | !breath!D2 D4 D3/2 D/ | D3 D D3 D | C2 C2 z4 | z4!pp! =D2 _D D | %16
w: Gruß, den Gruß ge-|bracht; dir sa- gen|auch des Freun- des|Lie- der|nun Gu- te|
 C4 !fermata!z2 |] %17
w: Nacht!|
V:3
!p! A2 | A3 B c A G A | (A3 B) A2 z2 | z4 z2 c2- | c2 B B !breath!B2 A2 | A3 B c A G A | %6
w: Die|gu- te Nacht, die ich dir|sa- * ge,|Freund,|_ hö- rest du; ein|En- gel, der die Bot- schaft|
 (A3 B) A2 z2 | z4 z2 c2- | c2 c B !breath!B2 B2 | B3/2 B/ B3 B B =A | B2 B2 z2!<(! B2 | %11
w: tra- * ge,|geht|_ ab und zu. Er|bringt sie dir, und hat mir|wie- der den|
 B3!<)!!>(! B B2 =A2!>)! | !breath!B2 B4 B3/2 B/ | B3 B B3 B | A2 A2 z4 | z4!pp! A2 G G | %16
w: Gruß, den Gruß ge-|bracht; dir sa- gen|auch des Freun- des|Lie- der|nun Gu- te|
 A4 !fermata!z2 |] %17
w: Nacht!|
V:4
!p! A,,2 | D,3 D, C, C, B,, A,, | (F,3 G,) A,2 z2 | z4 z2 F,2- | F,2 B, B, !breath!E,2 A,,2 | %5
w: Die|gu- te Nacht, die ich dir|sa- * ge,|Freund,|_ hö- rest du; ein|
 D,3 D, C, C, B,, A,, | (F,3 G,) A,2 z2 | z4 z2 F,2- | F,2 F, B, !breath!E,2 E,2 | %9
w: En- gel, der die Bot- schaft|tra- * ge,|geht|_ ab und zu. Er|
 E,3/2 E,/ E,3 E, E, _G, | B,,2 B,,2 z2!<(! B,,2 | E,3!<)!!>(! E, F,2 F,,2!>)! | %12
w: bringt sie dir, und hat mir|wie- der den|Gruß, den Gruß ge-|
 !breath!B,,2 B,4 B,3/2 B,/ | B,3 B, =E,3 E, | F,2 F,2 z4 | z4!pp! F,2 E, E, | %16
w: bracht; dir sa- gen|auch des Freun- des|Lie- der|nun Gu- te|
 [A,,E,]4 !fermata!z2 |] %17
w: Nacht!|

